lib/brands/icons/google-marketing-platform.svg

<svg xmlns="http://www.w3.org/2000/svg" fill="none" aria-hidden="true" viewBox="0 0 48 48"><g id="google-marketing-platform-Icon"><g id="Group"><path id="Vector" fill="#EA4335" d="M30.3564 17.6438C33.8721 21.1594 33.8721 26.8547 30.3564 30.3703C28.5986 32.1281 28.5986 34.9828 30.3564 36.7266C32.1143 38.4844 34.9689 38.4844 36.7268 36.7266C43.758 29.6953 43.758 18.3047 36.7268 11.2734L30.3564 17.6438Z"/><path id="Vector_2" fill="url(#paint0_linear_94_17721)" d="M36.7125 11.2734C29.6812 4.24219 18.3047 4.24219 11.2734 11.2734C4.24219 18.3047 4.24219 29.6953 11.2734 36.7266L17.6438 30.3703C14.1281 26.8547 14.1281 21.1594 17.6438 17.6438C21.1594 14.1281 26.8547 14.1281 30.3703 17.6438C32.1281 19.4016 34.9828 19.4016 36.7406 17.6438C38.4703 15.8859 38.4703 13.0312 36.7125 11.2734Z"/><path id="Vector_3" fill="#FBBC04" d="M36.7123 36.7266L30.342 30.3703C26.8264 33.8859 21.1311 33.8859 17.6154 30.3703L11.2451 36.7266C18.3045 43.7578 29.6811 43.7578 36.7123 36.7266Z"/><path id="Vector_4" fill="#EA4335" d="M30.3564 30.3703C32.1143 28.6125 34.9549 28.6125 36.7127 30.3703C38.4705 32.1281 38.4705 34.9828 36.7127 36.7406C34.9549 38.4984 32.1143 38.4984 30.3564 36.7406C28.5986 34.9828 28.5986 32.1281 30.3564 30.3703Z"/><path id="Vector_5" fill="#34A853" d="M11.2734 30.3703C13.0312 28.6125 15.8719 28.6125 17.6297 30.3703C19.3875 32.1281 19.3875 34.9828 17.6297 36.7406C15.8719 38.4984 13.0312 38.4984 11.2734 36.7406C9.51562 34.9828 9.51562 32.1281 11.2734 30.3703Z"/></g></g><defs><linearGradient id="paint0_linear_94_17721" x1="6" x2="38.0342" y1="21.3633" y2="21.3633" gradientUnits="userSpaceOnUse"><stop stop-color="#246FDB"/><stop offset="0.0552" stop-color="#2973DF"/><stop offset="0.2781" stop-color="#377DEB"/><stop offset="0.5491" stop-color="#3F83F2"/><stop offset="1" stop-color="#4285F4"/></linearGradient></defs></svg>

<svg xmlns="http://www.w3.org/2000/svg" fill="none" aria-hidden="true" viewBox="0 0 48 48"><path fill="#EA4335" d="M30.356 17.644a8.997 8.997 0 0 1 0 12.726c-1.758 1.758-1.758 4.613 0 6.357a4.507 4.507 0 0 0 6.37 0c7.032-7.032 7.032-18.422 0-25.454l-6.37 6.37Z"/><path fill="url(#a)" d="M36.712 11.273c-7.03-7.03-18.407-7.03-25.439 0-7.03 7.032-7.03 18.422 0 25.454l6.37-6.357a8.997 8.997 0 0 1 0-12.726 8.997 8.997 0 0 1 12.727 0 4.507 4.507 0 0 0 6.37 0 4.533 4.533 0 0 0-.028-6.37Z"/><path fill="#FBBC04" d="m36.712 36.727-6.37-6.357a8.997 8.997 0 0 1-12.726 0l-6.37 6.357c7.059 7.03 18.435 7.03 25.466 0Z"/><path fill="#EA4335" d="M30.356 30.37a4.49 4.49 0 0 1 6.356 0 4.507 4.507 0 0 1 0 6.37 4.49 4.49 0 0 1-6.356 0 4.507 4.507 0 0 1 0-6.37Z"/><path fill="#34A853" d="M11.273 30.37a4.49 4.49 0 0 1 6.357 0 4.507 4.507 0 0 1 0 6.37 4.49 4.49 0 0 1-6.357 0 4.507 4.507 0 0 1 0-6.37Z"/><defs><linearGradient id="a" x1="6" x2="38.034" y1="21.363" y2="21.363" gradientUnits="userSpaceOnUse"><stop stop-color="#246FDB"/><stop offset=".055" stop-color="#2973DF"/><stop offset=".278" stop-color="#377DEB"/><stop offset=".549" stop-color="#3F83F2"/><stop offset="1" stop-color="#4285F4"/></linearGradient></defs></svg>
